!!!!SEGMENT: pl-kk--kk-i-2--005-002_anonim--missa-ii-brevis-ad-imitationem-missae-sine-nomine-gloria.krn
!!!cenid: 16xx:1599
!!!COM: Anonim
!!!COM-rismID: pe30004985
!!!CDT:
!!!CNT:
!!!OPR: Missa II brevis ad imitationem missae Sine nomine
!!!OTL: Gloria
!!!OMV: 002
!!!PDT:
!!!AGN: Sacred; Mass
!!!SMS-siglum: PL-Kk
!!!SMS-shelfmark: Kk.I.2
!!!SMS-shelfwork: 005-002 M
!!!SMS-variant:
!!!SMS-altvar:
!!!NIFC-rismSourceID: 300258016
!!!NIFC-rismChildID: 300258021
!!!NIFC-islandoraID: pl-kk:750
!!!URL-pdf-islandora: https://repozytorium.nifc.pl/islandora/object/pl-kk%3A750/datastream/PDF/view
!!!URL-scan: https://polish.musicsources.pl/pl/lokalizacje/galeria/rekopisy/5828 @EN{Scan on Polish Music Sources Website} @PL{Skany w portalu Dziedzictwo Muzyki Polskiej w otwartym dostępie}
!!!ONB-nifc: Części mszy: Kyrie, Gloria, Credo, Sanctus, Agnus Dei; skany: C: 0011-0012; A: 0111-0112; T: 0214-0215; B: 0314-0315;
!!!AIN: 3 empty 1 tenor
!!!key: a:phr
**kern	**text	**kern	**text	**kern	**text	**kern	**text
*part4	*part4	*part3	*part3	*part2	*part2	*part1	*part1
*staff4	*staff4	*staff3	*staff3	*staff2	*staff2	*staff1	*staff1
*Iempty	*	*Itenor	*	*Iempty	*	*Iempty	*
*I"BASVS	*	*I"TENOR	*	*I"ALTVS	*	*I"DISCANTVS	*
*I'B	*	*I'T	*	*I'A	*	*I'S	*
*clefF4	*	*clefC4	*	*clefC4	*	*clefC1	*
*k[]	*	*k[]	*	*k[]	*	*k[]	*
*a:phr	*	*a:phr	*	*a:phr	*	*a:phr	*
*M2/1	*	*M2/1	*	*M2/1	*	*M2/1	*
*met(C|)	*	*met(C|)	*	*met(C|)	*	*met(C|)	*
=1-	=1-	=1-	=1-	=1-	=1-	=1-	=1-
*xywh-#314:7776,3789,5962,1360	*	*xywh-#214:1373,3775,5841,1117	*	*xywh-#111:1383,3666,6045,990	*	*xywh-#11:1287,3667,6063,1064	*
!LO:TX:t=P:problem=kreska pseudotaktowa	!	!LO:TX:t=P:problem=kreska pseudotaktowa	!	!	!	!	!
1r	.	0r	.	2.E/	Et	00r	.
.	.	.	.	4E/	in	.	.
2.E/	Et	.	.	2E/	ter-	.	.
!	!	!	!	!LO:TX:t=P:problem=kreska pseudotaktowa	!	!	!
.	.	.	.	2E/	-ra	.	.
4E/	in	.	.	.	.	.	.
=2-	=2-	=2-	=2-	=2-	=2-	=2-	=2-
2E/	ter-	2.E/	Et	2.G/	pax	.	.
!LO:TX:t=P:problem=kreska pseudotaktowa	!	!	!	!	!	!	!
2E/	-ra	.	.	.	.	.	.
.	.	4E/	in	4A/	ho-	.	.
2.G\	pax	2E/	ter-	2B/	-mi-	.	.
!	!	!LO:TX:t=P:problem=kreska pseudotaktowa	!	!	!	!	!
.	.	2E/	-ra	1c/	.	.	.
4F\	.	.	.	.	.	.	.
=3-	=3-	=3-	=3-	=3-	=3-	=3-	=3-
!	!	!	!	!	!	!LO:TX:t=P:problem=kreska pseudotaktowa	!
4E/	.	2.G/	pax	.	.	00r	.
4D/	.	.	.	.	.	.	.
2.E/	.	.	.	4B/	.	.	.
!	!	!	!	!LO:TX:t=P:problem=kreska pseudotaktowa	!	!	!
.	.	4A/	ho-	4A/	-ni-	.	.
.	.	2B\	-mi-	2G/	-bus	.	.
4D/	.	.	.	.	.	.	.
4C/	.	2.c\	-ni-	2e\	bo-	.	.
!LO:TX:t=P:problem=kreska pseudotaktowa	!	!	!	!	!	!	!
4BB/	.	.	.	.	.	.	.
=4-	=4-	=4-	=4-	=4-	=4-	=4-	=4-
2AA,/	.	.	.	2e\	-na-	.	.
.	.	4B\	.	.	.	.	.
!	!	!	!	!LO:TX:t=P:problem=kreska pseudotaktowa	!	!	!
2C/	ho-	1A	-bus	2e\	-e	.	.
2BB/	-mi-	.	.	2d\	vo-	.	.
!	!	!LO:TX:t=P:problem=kreska pseudotaktowa	!	!	!	!	!
2BB/	-ni-	2G/	.	2d\	-lun-	.	.
=5-	=5-	=5-	=5-	=5-	=5-	=5-	=5-
!LO:TX:t=P:problem=kreska pseudotaktowa	!	!	!	!	!	!	!
1AA	-bus	1A	.	2.c\	-ta-	1e	Bo-
.	.	.	.	4A/	.	.	.
00r	.	2r	.	2B/	.	2.g/	-nae
!	!	!LO:TX:t=P:problem=kreska pseudotaktowa	!	!LO:TX:t=P:problem=kreska pseudotaktowa	!	!	!
.	.	2E/	bo-	2c/	.	.	.
.	.	.	.	.	.	4a\	.
=6-	=6-	=6-	=6-	=6-	=6-	=6-	=6-
.	.	2.E/	-nae	2B/	.	4b\	.
.	.	.	.	.	.	4g/	.
!	!	!	!	!	!	!LO:TX:t=P:problem=kreska pseudotaktowa	!
.	.	.	.	2e\	.	2cc\	vo-
.	.	4F/	vo-	.	.	.	.
.	.	2G/	-lun-	4d\	.	2b\	-lun-
.	.	.	.	4c\	.	.	.
.	.	2A/	-ta-	4B\	.	1a\	-ta-
.	.	.	.	4A\	.	.	.
=7-	=7-	=7-	=7-	=7-	=7-	=7-	=7-
*	*	*	*	*custos:A	*	*	*
!	!	!LO:TX:t=P:problem=kreska pseudotaktowa	!	!LO:TX:t=P:problem=kreska pseudotaktowa	!	!	!
.	.	1E	-tiſ	1B	.	.	.
.	.	.	.	.	.	2g/	-tiſ
!	!	!	!	!LO:PB:g=original	!	!	!
*	*	*	*	*xywh-#111:7648,439,6480,1103	*	*	*
2r	.	0r	.	1A	-tiſ	2a,\	.
!LO:TX:t=P:problem=kreska pseudotaktowa	!	!	!	!	!	!LO:TX:t=P:problem=kreska pseudotaktowa	!
2A\	Lau-	.	.	.	.	2cc\	Lau-
=8-	=8-	=8-	=8-	=8-	=8-	=8-	=8-
2A\	-da-	.	.	2r	.	2cc\	-da-
!LO:TX:t=P:problem=kreska pseudotaktowa	!	!	!	!LO:TX:t=P:problem=kreska pseudotaktowa	!	!	!
2G\	-m(us)	.	.	2B/	Lau-	2b\	-mus
*	*	*custos:c	*	*	*	*	*
2.F\	te	2r	.	2c/	-da-	2.a\	te
!	!	!LO:PB:g=original	!	!	!	!	!
*	*	*xywh-#214:7587,481,6278,1161	*	*	*	*	*
!	!	!LO:TX:t=P:problem=kreska pseudotaktowa	!	!	!	!	!
.	.	2c\	Lau-	2A/	-mus	.	.
!	!	!	!	!	!	!LO:TX:t=P:problem=kreska pseudotaktowa	!
4F\	be-	.	.	.	.	4a\	Be-
=9-	=9-	=9-	=9-	=9-	=9-	=9-	=9-
2E/	-ne-	2c\	-da-	2.e\	te	2g/	-ne-
*custos:D	*	*	*	*	*	*	*
!LO:TX:t=P:problem=kreska pseudotaktowa	!	!	!	!	!	!	!
2C/	-di-	2c\	-mus	.	.	2a/	-di-
!	!	!	!	!LO:TX:t=P:problem=kreska pseudotaktowa	!	!	!
.	.	.	.	4e\	Be-	.	.
!LO:PB:g=original	!	!	!	!	!	!	!
*xywh-#315:1523,453,5937,1367	*	*	*	*	*	*	*
2D/	-ci-	2.B/	te	2f\	-ne-	2a/	-ci-
!	!	!	!	!	!	!LO:TX:t=P:problem=kreska pseudotaktowa	!
2E/	-mus	.	.	2e\	-di-	2g/	-mus
.	.	4B/	Be-	.	.	.	.
=10-	=10-	=10-	=10-	=10-	=10-	=10-	=10-
!LO:TX:t=P:problem=kreska pseudotaktowa	!	!	!	!	!	!	!
1AA	te	2A/	-ne-	4c\	-ci-	4a/	.
.	.	.	.	4d\	.	4b/	.
.	.	2A/	-di-	4e\	.	4cc\	.
*	*	*	*	*	*	*custos:b	*
!	!	!	!	!LO:TX:t=P:problem=kreska pseudotaktowa	!	!LO:TX:t=P:problem=kreska pseudotaktowa	!
.	.	.	.	4c/	.	4a/	.
!	!	!	!	!	!	!LO:PB:g=original	!
*	*	*	*	*	*	*xywh-#11:7588,460,6455,1134	*
0r	.	2G/	-ci-	4d\	.	2b\	.
.	.	.	.	4c\	.	.	.
.	.	2A/	-mus	4B/	.	1a\	.
.	.	.	.	4A/	.	.	.
=11-	=11-	=11-	=11-	=11-	=11-	=11-	=11-
!	!	!LO:TX:t=P:problem=kreska pseudotaktowa	!	!	!	!	!
.	.	1E	te	2B/	.	.	.
!	!	!	!	!	!	!LO:TX:t=P:problem=kreska pseudotaktowa	!
.	.	.	.	2B/	-mus	2g/	te
2r	.	2r	.	2A/	te	2a/	A-
!	!	!	!	!LO:TX:t=P:problem=kreska pseudotaktowa	!	!	!
1AA/	A-	1A\	A-	2e\	A-	1cc\	-do-
=12-	=12-	=12-	=12-	=12-	=12-	=12-	=12-
.	.	.	.	2e\	-do-	.	.
!LO:TX:t=P:problem=kreska pseudotaktowa	!	!	!	!	!	!LO:TX:t=P:problem=kreska pseudotaktowa	!
2AA/	-do-	2A/	-do-	2.e\	-ra-	2cc\	-ra-
2E\	-ra-	2G/	-ra-	.	.	2b\	-mus
.	.	.	.	4c/	-mus	.	.
!	!	!LO:TX:t=P:problem=kreska pseudotaktowa	!	!LO:TX:t=P:problem=kreska pseudotaktowa	!	!	!
2F\	-mus	2A/	-mus	2d\	te	2a\	te
=13-	=13-	=13-	=13-	=13-	=13-	=13-	=13-
2E\	te	2B,/	te	2e\	Glo-	2g/	Glo-
!LO:TX:t=P:problem=kreska pseudotaktowa	!	!	!	!	!	!	!
2E\	Glo-	2G/	Glo-	2e\	-ri-	2.cc\	-ri-
2AA/	-ri-	2c\	-ri-	2e\	-fi-	.	.
.	.	.	.	.	.	4b\	-fi-
!	!	!	!	!	!	!LO:TX:t=P:problem=kreska pseudotaktowa	!
2AA/	-fi-	2c\	-fi-	2f\	-ca-	2a/	-ca-
=14-	=14-	=14-	=14-	=14-	=14-	=14-	=14-
2E\	-ca-	2B/	-ca-	2e\	-mus	2g/	-mus
2F\	-mus	2A/	-muſ	2d\	.	1a	.
!LO:TX:t=P:problem=kreska pseudotaktowa	!	!LO:TX:t=P:problem=kreska pseudotaktowa	!	!LO:TX:t=P:problem=kreska pseudotaktowa	!	!	!
1E	te	1B	te	1e	te	.	.
.	.	.	.	.	.	2g/	.
=15-	=15-	=15-	=15-	=15-	=15-	=15-	=15-
2r	.	2A,/	.	2r	.	2a/	te
!	!	!	!	!	!	!LO:TX:t=P:problem=kreska pseudotaktowa	!
2.C/	Gra-	2.c\	Gra-	2.e\	Gra-	2g/	.
.	.	.	.	.	.	2r	.
*	*	*	*	*custos:e	*	*	*
4C/	-(ti-	4c\	-ti-	4e\	-ci-	.	.
*	*	*	*	*xywh-#111:7622,1334,6158,912	*	*	*
!	!	!	!	!LO:TX:t=P:problem=kreska pseudotaktowa	!	!	!
!LO:TX:t=P:problem=kreska pseudotaktowa	!	!LO:TX:t=P:problem=kreska pseudotaktowa	!	!LO:LB:g=original	!	!	!
2C/	-a)s	2c\	-as	2e\	-as	2.g/	Gra-
=16-	=16-	=16-	=16-	=16-	=16-	=16-	=16-
2G\	a-	2B\	a-	2.d\	a-	.	.
.	.	.	.	.	.	4g/	-ti-
*	*	*custos:c	*	*	*	*	*
!	!	!	!	!	!	!LO:TX:t=P:problem=kreska pseudotaktowa	!
2G\	-gi-	2B\	-gi-	.	.	2g/	-as
.	.	.	.	4e\	-gi-	.	.
!	!	!LO:LB:g=original	!	!	!	!	!
*	*	*xywh-#214:7779,1389,5754,1004	*	*	*	*	*
2F\	-mus	1c	-mus	1f	-mus	2.a/	a-
1E\	ti-	.	.	.	.	.	.
.	.	.	.	.	.	4a/	-gi-
=17-	=17-	=17-	=17-	=17-	=17-	=17-	=17-
.	.	1d	ti-	1f	ti-	2a/	-mus
!LO:TX:t=P:problem=kreska pseudotaktowa	!	!	!	!	!	!	!
2D\	.	.	.	.	.	2a/	ti-
!	!	!	!	!LO:TX:t=P:problem=kreska pseudotaktowa	!	!LO:TX:t=P:problem=kreska pseudotaktowa	!
1E	-bi	2B/	-bi	1e	-bi	1g	-bi
.	.	2B/	prop-	.	.	.	.
=18-	=18-	=18-	=18-	=18-	=18-	=18-	=18-
2r	.	1c	-ter	2r	.	2r	.
!LO:TX:t=P:problem=kreska pseudotaktowa	!	!	!	!LO:TX:t=P:problem=kreska pseudotaktowa	!	!	!
2C/	prop-	.	.	2E/	prop-	2.g/	prop-
2C/	-t(er)	1c	mag-	2e\	-t(er)	.	.
*	*	*	*	*	*	*custos:g	*
.	.	.	.	.	.	4g/	-ter
*custos:G	*	*	*	*	*	*	*
!LO:TX:t=P:problem=kreska pseudotaktowa	!	!	!	!	!	!LO:TX:t=P:problem=kreska pseudotaktowa	!
!	!	!	!	!LO:TX:t=P:problem=kreska pseudotaktowa	!LO:LB:g=original	!	!
*	*	*	*	*	*	*xywh-#11:7758,1434,5943,923	*
2C/	ma-	.	.	2e\	m(a)g-	2g/	mag-
=19-	=19-	=19-	=19-	=19-	=19-	=19-	=19-
*	*	*	*	*lig	*	*	*
*	*	*	*	*col	*	*	*
!LO:LB:g=original	!	!LO:TX:t=P:problem=kreska pseudotaktowa	!	!	!	!	!
*xywh-#315:1391,1441,6025,1190	*	*	*	*	*	*	*
2.G\	-gna(m)	1B	-nam	2.d\	-(n)a(m)	2g/	-nam
!	!	!	!	!	!	!LO:TX:t=P:problem=kreska pseudotaktowa	!
.	.	.	.	.	.	2g/	glo-
!	!	!	!	!LO:TX:t=P:problem=kreska pseudotaktowa	!	!	!
4G\	glo-	.	.	4e\	glo-	.	.
*	*	*	*	*Xlig	*	*	*
*	*	*	*	*Xcol	*	*	*
2F\	-ri-	2.A/	glo-	2f\	-ri-	2a/	-ri-
1A\	-a(m)	.	.	1e\	-a(m)	2.cc\	-am
.	.	4B/	-ri-	.	.	.	.
=20-	=20-	=20-	=20-	=20-	=20-	=20-	=20-
.	.	2c\	-am	.	.	.	.
.	.	.	.	.	.	4b\	.
!LO:TX:t=P:problem=kreska pseudotaktowa	!	!	!	!	!	!	!
2D/	.	2d\	.	2f\	tu-	1a	.
!	!	!	!	!LO:TX:t=P:problem=kreska pseudotaktowa	!	!	!
1E	tu-	1B	tu-	1e	-a(m)	.	.
.	.	.	.	.	.	2g/	tu-
=21-	=21-	=21-	=21-	=21-	=21-	=21-	=21-
!LO:TX:t=P:problem=kreska pseudotaktowa	!	!LO:TX:t=P:problem=kreska pseudotaktowa	!	!	!	!LO:TX:t=P:problem=kreska pseudotaktowa	!
0.AA	-a(m)	1A	-am	2r	.	1a	-am
.	.	.	.	2A/	Do-	.	.
!	!	!LO:TX:a:t=6.	!	!	!	!	!
.	.	00r	.	2A/	-mi-	2r	.
.	.	.	.	2A/	-ne	2e/	Do-
=22-	=22-	=22-	=22-	=22-	=22-	=22-	=22-
.	.	.	.	1c	de-	2e/	-mi-
.	.	.	.	.	.	2e/	-ne
0r	.	.	.	2.B/	-us	2g/	De-
!	!	!	!	!	!	!LO:TX:t=P:problem=kreska pseudotaktowa	!
.	.	.	.	.	.	2d/	-us
!	!	!	!	!LO:TX:t=P:problem=kreska pseudotaktowa	!	!	!
.	.	.	.	4c\	rex	.	.
=23-	=23-	=23-	=23-	=23-	=23-	=23-	=23-
.	.	.	.	2d\	cae-	1f	Rex
.	.	.	.	2A/	.	.	.
*	*	*	*	*lig	*	*	*
!LO:TX:t=P:problem=kreska pseudotaktowa	!	!LO:TX:t=P:problem=kreska pseudotaktowa	!	!	!	!	!
1r	.	0r	.	1c	-le-	2e/	cae-
.	.	.	.	.	.	1a\	.
=24-	=24-	=24-	=24-	=24-	=24-	=24-	=24-
1E	de-	.	.	1B	.	.	.
!	!	!	!	!	!	!LO:TX:t=P:problem=kreska pseudotaktowa	!
.	.	.	.	.	.	2g/	.
*	*	*	*	*Xlig	*	*	*
!	!	!	!	!LO:TX:t=P:problem=kreska pseudotaktowa	!	!	!
2C/	-us	2r	.	1A	-ſtis	2a/	.
!	!	!LO:TX:t=P:problem=kreska pseudotaktowa	!	!	!	!	!
2AA/	pa-	2E/	De-	.	.	2.cc\	.
=25-	=25-	=25-	=25-	=25-	=25-	=25-	=25-
2E\	-ter	2G/	-us	0r	.	.	.
.	.	.	.	.	.	4b\	-leſ-
2F\	om-	2A/	pa-	.	.	2a/	-tis
!	!	!	!	!	!	!LO:TX:t=P:problem=kreska pseudotaktowa	!
2E/	-ni-	2B\	-ter	.	.	1g	.
!LO:TX:t=P:problem=kreska pseudotaktowa	!	!	!	!	!	!	!
2C/	-po-	2c\	om-	.	.	.	.
=26-	=26-	=26-	=26-	=26-	=26-	=26-	=26-
4D/	.	4B\	-ni-	2r	.	0r	.
4C/	.	4A\	-po-	.	.	.	.
4BB/	.	1A	-tens	2d\	Do-	.	.
4AA/	.	.	.	.	.	.	.
1BB	.	.	.	2d\	-mi-	.	.
*	*	*	*	*custos:c	*	*	*
!	!	!	!	!LO:TX:t=P:problem=kreska pseudotaktowa	!	!	!
.	.	2G/	.	2d\	-ne	.	.
=27-	=27-	=27-	=27-	=27-	=27-	=27-	=27-
!LO:TX:t=P:problem=kreska pseudotaktowa	!	!LO:TX:t=P:problem=kreska pseudotaktowa	!	!LO:LB:g=original	!	!	!
*	*	*	*	*xywh-#111:7674,1933,6211,1111	*	*	*
1AA	-tens	1A	.	2c\	fi-	2r	.
!	!	!	!	!	!	!LO:TX:t=P:problem=kreska pseudotaktowa	!
.	.	.	.	2A/	-li	2a\	Do-
0r	.	0r	.	2c\	u-	2a\	-mi-
!	!	!	!	!LO:TX:t=P:problem=kreska pseudotaktowa	!	!	!
.	.	.	.	2d\	-ni-	2a\	-ne
=28-	=28-	=28-	=28-	=28-	=28-	=28-	=28-
.	.	.	.	2B\	-ge-	2g/	fi-
*	*	*	*	*	*	*custos:f	*
!	!	!	!	!	!	!LO:TX:t=P:problem=kreska pseudotaktowa	!
.	.	.	.	2c\	.	2e/	-li
!LO:TX:t=P:problem=kreska pseudotaktowa	!	!LO:TX:t=P:problem=kreska pseudotaktowa	!	!	!	!	!
*	*	*	*	*	*	*xywh-#11:7688,2247,5913,953	*
1r	.	1r	.	2d\	.	2f/	u-
.	.	.	.	1e\	.	2g/	-ni-
=29-	=29-	=29-	=29-	=29-	=29-	=29-	=29-
1D	Je-	1A	Je-	.	.	2f/	-ge-
!	!	!	!	!	!	!LO:TX:t=P:problem=kreska pseudotaktowa	!
.	.	.	.	2d\	-ni-	2f/	-ni-
*	*	*custos:B	*	*	*	*	*
!	!	!LO:TX:t=P:problem=kreska pseudotaktowa	!	!LO:TX:t=P:problem=kreska pseudotaktowa	!	!	!
1C	-ſu	0c	-ſu	1e	-te	2e/	-te
.	.	.	.	.	.	2.cc\	Je-
=30-	=30-	=30-	=30-	=30-	=30-	=30-	=30-
1AA	.	.	.	2r	.	.	.
.	.	.	.	.	.	4b\	-ſu
.	.	.	.	2e\	Je-	1a	Chri-
!	!	!LO:LB:g=original	!	!	!	!	!
*	*	*xywh-#214:7762,2271,5990,908	*	*	*	*	*
00E	Chri-	1.B	Chri-	2e\	-ſu	.	.
.	.	.	.	2e\	Chr(i-	4g/	.
!	!	!	!	!	!	!LO:TX:t=P:problem=kreska pseudotaktowa	!
.	.	.	.	.	.	4f/	.
=31-	=31-	=31-	=31-	=31-	=31-	=31-	=31-
!	!	!	!	!LO:TX:t=P:problem=kreska pseudotaktowa	!	!	!
.	.	.	.	1e	-st)e	2g/	.
.	.	4A/	.	.	.	2.b\	.
.	.	4G/	.	.	.	.	.
.	.	1c	.	2r	.	.	.
.	.	.	.	.	.	4a/	.
.	.	.	.	2.e\	Do-	1a\	.
=32-	=32-	=32-	=32-	=32-	=32-	=32-	=32-
.	.	1B	.	.	.	.	.
.	.	.	.	4e\	-mi-	.	.
!	!	!	!	!LO:TX:t=P:problem=kreska pseudotaktowa	!	!	!
.	.	.	.	2e\	-ne	2g/	.
!LO:TX:t=P:problem=kreska pseudotaktowa	!	!LO:TX:t=P:problem=kreska pseudotaktowa	!	!	!	!LO:TX:t=P:problem=kreska pseudotaktowa	!
0AA	-ſte	1A	-ſte	2c/	de-	1a	-ſte   ,
.	.	.	.	2A/	-us	.	.
=33-	=33-	=33-	=33-	=33-	=33-	=33-	=33-
.	.	2r	.	2.c\	ag-	2r	.
.	.	2.A/	Do-	.	.	2.cc\	Do-
!	!	!	!	!LO:TX:t=P:problem=kreska pseudotaktowa	!	!	!
.	.	.	.	4d\	.	.	.
00r	.	.	.	2e\	.	.	.
.	.	4A/	-mi-	.	.	4cc\	-mi-
!	!	!	!	!	!	!LO:TX:t=P:problem=kreska pseudotaktowa	!
.	.	2A/	-ne	2f\	.	2cc\	-ne
=34-	=34-	=34-	=34-	=34-	=34-	=34-	=34-
.	.	2G/	De-	2d\	.	2b\	De-
!	!	!LO:TX:t=P:problem=kreska pseudotaktowa	!	!LO:TX:t=P:problem=kreska pseudotaktowa	!	!	!
.	.	2E/	-us	2e\	-nus	2g/	-us
!	!	!	!	!	!	!LO:TX:t=P:problem=kreska pseudotaktowa	!
.	.	1F	ag-	4A/	de-	1a	ag-
.	.	.	.	4B/	.	.	.
.	.	.	.	4c\	.	.	.
.	.	.	.	4d\	.	.	.
=35-	=35-	=35-	=35-	=35-	=35-	=35-	=35-
.	.	2E/	-nus	4e\	.	2g/	-nus
.	.	.	.	4c/	.	.	.
.	.	2D/	De-	2.f\	.	2.a/	De-
*custos:D	*	*	*	*	*	*	*
!	!	!LO:TX:t=P:problem=kreska pseudotaktowa	!	!	!	!	!
!LO:TX:t=P:problem=kreska pseudotaktowa	!	!	!	!	!	!	!
1D	fi-	1A	-i.	.	.	.	.
.	.	.	.	4e\	.	4g/	.
.	.	.	.	1e\	.	4f/	.
.	.	.	.	.	.	4e/	.
=36-	=36-	=36-	=36-	=36-	=36-	=36-	=36-
*lig	*	*	*	*	*	*	*
*	*	*	*	*	*	*custos:e	*
!LO:LB:g=original	!	!	!	!	!	!LO:TX:t=P:problem=kreska pseudotaktowa	!
*xywh-#315:1400,2218,5893,1146	*	*	*	*	*	*	*
1D	-li-	2r	.	.	.	1f	.
*	*	*	*	*custos:e	*	*	*
!	!	!	!	!LO:TX:t=P:problem=kreska pseudotaktowa	!	!	!
.	.	2A/	fi-	2d/	.	.	.
!	!	!	!	!	!	!LO:LB:g=original	!
*	*	*	*	*	*	*xywh-#11:7808,2819,5822,1134	*
!	!	!	!	!LO:LB:g=original	!	!LO:TX:t=P:problem=kreska pseudotaktowa	!
*	*	*	*	*xywh-#111:7726,2880,6124,964	*	*	*
1C	.	2.c\	-li-	1e	-i	1e	-i
!	!	!LO:TX:t=P:problem=kreska pseudotaktowa	!	!	!	!	!
.	.	4B/	-us	.	.	.	.
*Xlig	*	*	*	*	*	*	*
=37-	=37-	=37-	=37-	=37-	=37-	=37-	=37-
*lig	*	*	*	*	*	*	*
1D	-us	4A/	pa-	2.d\	de-	0r	.
.	.	4G/	.	.	.	.	.
.	.	2.A/	.	.	.	.	.
.	.	.	.	4c/	.	.	.
!LO:TX:t=P:problem=kreska pseudotaktowa	!	!	!	!	!	!	!
1E	.	.	.	1B	.	.	.
.	.	4F/	.	.	.	.	.
!	!	!LO:TX:t=P:problem=kreska pseudotaktowa	!	!	!	!	!
.	.	2G/	.	.	.	.	.
*Xlig	*	*	*	*	*	*	*
=38-	=38-	=38-	=38-	=38-	=38-	=38-	=38-
2C/	pa-	2E/	.	2A,/	-i	2r	.
!	!	!	!	!LO:TX:t=P:problem=kreska pseudotaktowa	!	!LO:TX:t=P:problem=kreska pseudotaktowa	!
2D/	.	1F	.	2d\	fi-	2a\	fi-
1BB	.	.	.	2d\	-li-	2b\	-li-
.	.	4E/	.	2d\	-us	2b\	-us
.	.	4D/	.	.	.	.	.
=39-	=39-	=39-	=39-	=39-	=39-	=39-	=39-
!LO:TX:t=P:problem=kreska pseudotaktowa	!	!LO:TX:t=P:problem=kreska pseudotaktowa	!	!	!	!	!
1AA	-tris	1E	-tris	4c\	pa-	2.cc\	pa-
.	.	.	.	4d\	.	.	.
.	.	.	.	4e\	.	.	.
!	!	!	!	!LO:TX:t=P:problem=kreska pseudotaktowa	!	!LO:TX:t=P:problem=kreska pseudotaktowa	!
.	.	.	.	4c\	.	4b\	.
*	*	*custos:D	*	*	*	*	*
1r	.	2r	.	4d\	.	4a/	.
.	.	.	.	4e\	.	4g/	.
!	!	!LO:TX:t=P:problem=kreska pseudotaktowa	!	!	!	!	!
!	!	!LO:LB:g=original	!	!	!	!	!
*	*	*xywh-#214:7866,3031,5824,986	*	*	*	*	*
.	.	2D/	Qui	2.f\	.	2.a/	.
=40-	=40-	=40-	=40-	=40-	=40-	=40-	=40-
2r	.	4D/	.	.	.	.	.
.	.	4E/	.	4e\	.	4g/	.
!LO:TX:t=P:problem=kreska pseudotaktowa	!	!	!	!	!	!	!
2D/	ÿ	4F/	tol-	4d\	.	4f/	.
!	!	!	!	!	!	!LO:TX:t=P:problem=kreska pseudotaktowa	!
.	.	4G/	.	4c\	.	4e/	.
!	!	!LO:TX:t=P:problem=kreska pseudotaktowa	!	!LO:TX:t=P:problem=kreska pseudotaktowa	!	!	!
4D/	.	1A	-lis	1d	.	1f	-tris
4E/	.	.	.	.	.	.	.
4F\	.	.	.	.	.	.	.
4G\	.	.	.	.	.	.	.
=41-	=41-	=41-	=41-	=41-	=41-	=41-	=41-
2A\	.	2r	.	2.c\	.	2e/	pa-
!LO:TX:t=P:problem=kreska pseudotaktowa	!	!	!	!	!	!	!
2AA/	.	2A/	pec-	.	.	2.cc\	.
.	.	.	.	4d\	.	.	.
4AA/	.	1c	-ca-	4e\	.	.	.
4BB/	.	.	.	4d\	.	4b\	.
!	!	!	!	!	!	!LO:TX:t=P:problem=kreska pseudotaktowa	!
4C/	.	.	.	1e\	.	2a\	.
4D/	.	.	.	.	.	.	.
=42-	=42-	=42-	=42-	=42-	=42-	=42-	=42-
2E\	.	2B\	-ta	.	.	2g\	.
2F\	.	2A\	mun-	2d\	.	1a	.
!LO:TX:t=P:problem=kreska pseudotaktowa	!	!	!	!LO:TX:t=P:problem=kreska pseudotaktowa	!	!	!
1E	.	1B	.	1e	-triſ	.	.
.	.	.	.	.	.	2g/	.
=43-	=43-	=43-	=43-	=43-	=43-	=43-	=43-
!	!	!LO:TX:t=P:problem=kreska pseudotaktowa	!	!	!	!LO:TX:t=P:problem=kreska pseudotaktowa	!
2r	.	1A	-di	0r	.	1a	-tris
2D/	Qui	.	.	.	.	.	.
2E\	tol-	2r	.	.	.	0r	.
!LO:TX:t=P:problem=kreska pseudotaktowa	!	!	!	!	!	!	!
2F\	-l(is)	2A/	y	.	.	.	.
=44-	=44-	=44-	=44-	=44-	=44-	=44-	=44-
2D\	p(ec)-	2B\	.	2r	.	.	.
!	!	!	!	!LO:TX:t=P:problem=kreska pseudotaktowa	!	!	!
2E\	-c(a)-	2c\	.	2e\	mi-	.	.
1F	-ta	2.A/	.	2e\	-ſe-	2r	.
!	!	!	!	!	!	!LO:TX:t=P:problem=kreska pseudotaktowa	!
.	.	.	.	2d\	-re-	2a\	mi-
!	!	!LO:TX:t=P:problem=kreska pseudotaktowa	!	!	!	!	!
.	.	4B/	.	.	.	.	.
=45-	=45-	=45-	=45-	=45-	=45-	=45-	=45-
*custos:AA	*	*	*	*	*	*	*
!LO:TX:t=P:problem=kreska pseudotaktowa	!	!	!	!	!	!	!
1E	mun-	2c\	.	2.e\	-re	2a\	-ſe-
!	!	!	!	!	!	!LO:TX:t=P:problem=kreska pseudotaktowa	!
.	.	2B\	.	.	.	2g/	-re-
!	!	!	!	!LO:TX:t=P:problem=kreska pseudotaktowa	!	!	!
.	.	.	.	4d\	.	.	.
*	*	*	*	*custos:a	*	*custos:cc	*
!LO:LB:g=original	!	!LO:TX:t=P:problem=kreska pseudotaktowa	!	!	!	!	!
*xywh-#315:1470,2994,5848,1120	*	*	*	*	*	*	*
2AA,/	-di	1A	.	2c\	.	2a/	-re
!	!	!	!	!LO:LB:g=original	!	!	!
*	*	*	*	*xywh-#111:7726,3497,5950,1320	*	*xywh-#11:7688,3612,6415,1244	*
2A\	mi-	.	.	4A/	no-	2.cc\	no-
!	!	!	!	!LO:TX:t=P:problem=kreska pseudotaktowa	!	!	!
.	.	.	.	4B/	.	.	.
=46-	=46-	=46-	=46-	=46-	=46-	=46-	=46-
!	!	!LO:TX:t=P:problem=kreska pseudotaktowa	!	!	!	!	!
2A\	-ſe-	00r	.	4c\	.	.	.
.	.	.	.	4d\	.	4b\	.
!LO:TX:t=P:problem=kreska pseudotaktowa	!	!	!	!	!	!	!
2E\	-re-	.	.	2e\	.	2.b\	.
2G\	-re	.	.	2d\	.	.	.
.	.	.	.	.	.	4a\	.
2A\	no-	.	.	2c\	.	1a\	.
=47-	=47-	=47-	=47-	=47-	=47-	=47-	=47-
!LO:TX:t=P:problem=kreska pseudotaktowa	!	!	!	!LO:TX:t=P:problem=kreska pseudotaktowa	!	!	!
1E	-b(is)	.	.	1B	.	.	.
.	.	.	.	.	.	2g/	-bis
!	!	!	!	!	!	!LO:TX:t=P:problem=kreska pseudotaktowa	!
2r	.	.	.	2A,/	-b(is)	0a	.
2AA/	Qui	.	.	2A/	Qui	.	.
=48-	=48-	=48-	=48-	=48-	=48-	=48-	=48-
4AA/	tol-	1E	.	2.e\	tol-	.	.
4BB/	.	.	.	.	.	.	.
4C/	.	.	.	.	.	.	.
!LO:TX:t=P:problem=kreska pseudotaktowa	!	!	!	!	!	!	!
4AA/	-lis	.	.	4e\	-l(is)	.	.
2BB/	pec-	2G/	.	2d\	p(e)c-	00r	.
!	!	!LO:TX:t=P:problem=kreska pseudotaktowa	!	!LO:TX:t=P:problem=kreska pseudotaktowa	!	!	!
2.C/	-ca-	2G/	.	2e\	-(ca)-	.	.
=49-	=49-	=49-	=49-	=49-	=49-	=49-	=49-
.	.	1.A	.	2E/	-ta	.	.
4AA/	-ta	.	.	.	.	.	.
!LO:TX:t=P:problem=kreska pseudotaktowa	!	!	!	!	!	!	!
2D/	mun-	.	.	2F/	mun-	.	.
2C/	.	.	.	2E/	.	.	.
1D\	.	2A/	.	1F/	.	.	.
=50-	=50-	=50-	=50-	=50-	=50-	=50-	=50-
.	.	1A	.	.	.	.	.
4C/	.	.	.	4E/	.	.	.
!LO:TX:t=P:problem=kreska pseudotaktowa	!	!	!	!LO:TX:t=P:problem=kreska pseudotaktowa	!	!	!
4BB/	.	.	.	4D/	.	.	.
*	*	*custos:G	*	*	*	*	*
!	!	!	!	!	!	!LO:TX:t=P:problem=kreska pseudotaktowa	!
!	!	!LO:TX:t=P:problem=kreska pseudotaktowa	!	!	!	!	!
4AA/	.	1A	.	2E/	-di	1r	.
4BB/	.	.	.	.	.	.	.
4C/	.	.	.	1e\	Suſ-	.	.
4D/	.	.	.	.	.	.	.
=51-	=51-	=51-	=51-	=51-	=51-	=51-	=51-
!	!	!LO:LB:g=original	!	!	!	!	!
*	*	*xywh-#214:7814,3756,5885,1047	*	*	*	*	*
!LO:TX:t=P:problem=kreska pseudotaktowa	!	!LO:TX:t=P:problem=kreska pseudotaktowa	!	!	!	!	!
1E	-di	1G	.	.	.	2r	.
.	.	.	.	2e\	-ci-	1g	Suſ-
!	!	!	!	!LO:TX:t=P:problem=kreska pseudotaktowa	!	!	!
2r	.	2r	.	0e	-pe	.	.
!	!	!	!	!	!	!LO:TX:t=P:problem=kreska pseudotaktowa	!
1E\	Suſ-	1G/	Suſ-	.	.	2g/	-ci-
=52-	=52-	=52-	=52-	=52-	=52-	=52-	=52-
!	!	!	!	!	!	!LO:TX:t=P:problem=kreska pseudotaktowa	!
.	.	.	.	.	.	1g	-pe
!	!	!LO:TX:t=P:problem=kreska pseudotaktowa	!	!	!	!	!
2E\	-ci-	2G/	-ci-	.	.	.	.
!LO:TX:t=P:problem=kreska pseudotaktowa	!	!	!	!	!	!	!
1E	-pe	1G	-pe	2r	.	2r	.
.	.	.	.	1e\	de-	1g\	de-
=53-	=53-	=53-	=53-	=53-	=53-	=53-	=53-
2r	.	2r	.	.	.	.	.
!	!	!	!	!	!	!LO:TX:t=P:problem=kreska pseudotaktowa	!
2C/	de-	2c\	de-	2e\	-pre-	2g/	-prae-
2C/	-pre-	2c\	-prae-	1e	-ca-	1g	-ca-
*custos:G	*	*	*	*	*	*	*
!LO:TX:t=P:problem=kreska pseudotaktowa	!	!	!	!	!	!	!
2C/	-ca-	2c\	-ca-	.	.	.	.
=54-	=54-	=54-	=54-	=54-	=54-	=54-	=54-
!LO:LB:g=original	!	!	!	!	!	!	!
*xywh-#315:1347,3806,6016,1358	*	*	*	*	*	*	*
2G\	-ti-	2B/	-ti-	2.d\	-ti-	1g	-tio-
2G\	-o-	2B/	-o-	.	.	.	.
.	.	.	.	4e\	.	.	.
!	!	!LO:TX:t=P:problem=kreska pseudotaktowa	!	!	!	!	!
2F\	-nem	1c	-nem	1f	.	0a	-nem
1E\	.	.	.	.	.	.	.
=55-	=55-	=55-	=55-	=55-	=55-	=55-	=55-
*	*	*	*	*custos:e	*	*	*
!	!	!	!	!LO:TX:t=P:problem=kreska pseudotaktowa	!	!	!
.	.	2.d\	.	1f	-o-	.	.
!LO:TX:t=P:problem=kreska pseudotaktowa	!	!	!	!	!	!	!
2D/	noſ-	.	.	.	.	.	.
.	.	4c\	.	.	.	.	.
!	!	!	!	!LO:PB:g=original	!	!	!
*	*	*	*	*xywh-#112:1563,495,5924,981	*	*	*
2E,/	-tra(m)	2B/	.	2e\	-nem	2g/	no-
2AA/	ÿ	2A/	.	2.e\	no-	2cc\	.
=56-	=56-	=56-	=56-	=56-	=56-	=56-	=56-
2E/	.	2G/	.	.	.	2b\	.
.	.	.	.	4c\	.	.	.
2F\	.	2A/	.	2d\	.	1a	.
!	!	!LO:TX:t=P:problem=kreska pseudotaktowa	!	!LO:TX:t=P:problem=kreska pseudotaktowa	!	!	!
1E	.	1B	noſ-	1e	-ſtram	.	.
.	.	.	.	.	.	2g/	-ſtram
=57-	=57-	=57-	=57-	=57-	=57-	=57-	=57-
!LO:TX:t=P:problem=kreska pseudotaktowa	!	!	!	!	!	!LO:TX:t=P:problem=kreska pseudotaktowa	!
1AA	.	2A,/	-tram	2r	.	1a	.
.	.	2c\	Qui	2e\	Qui	.	.
2r	.	2B\	-ſe-	2d\	-ſe-	0r	.
!	!	!LO:TX:t=P::problem=kreska pseudotaktowa&colon;między nutą a kropką	!	!LO:TX:t=P:problem=kreska pseudotaktowa	!	!	!
2C/	Qui	2.c\	-des	2e\	-des	.	.
=58-	=58-	=58-	=58-	=58-	=58-	=58-	=58-
1F	ſe-	.	.	4A/	ad	.	.
.	.	4B/	(ad)	4B/	.	.	.
.	.	2A/	dex-	4c\	.	.	.
.	.	.	.	4d\	.	.	.
!	!	!	!	!	!	!LO:TX:t=P:problem=kreska pseudotaktowa	!
2E/	-des	2G/	-te-	2.e\	dex-	1r	.
!LO:TX:t=P:problem=kreska pseudotaktowa	!	!	!	!	!	!	!
2C/	ad	2.A/	-ram	.	.	.	.
.	.	.	.	8d\	.	.	.
!	!	!	!	!LO:TX:t=P:problem=kreska pseudotaktowa	!	!	!
.	.	.	.	8e\	.	.	.
=59-	=59-	=59-	=59-	=59-	=59-	=59-	=59-
2D/	dex-	.	.	2f\	-te-	2r	.
.	.	4F/	.	.	.	.	.
2E/	-te-	2G/	.	2e\	-ra(m)	2b\	mi-
*	*	*custos:E	*	*	*	*	*
!	!	!LO:TX:t=P:problem=kreska pseudotaktowa	!	!	!	!	!
2AA/	-ra(m)	1A	pa-	2.c\	pa-	1cc	-ſe-
1A\	pa-	.	.	.	.	.	.
.	.	.	.	4d\	.	.	.
=60-	=60-	=60-	=60-	=60-	=60-	=60-	=60-
*	*	*	*	*	*	*custos:a	*
!	!	!LO:PB:g=original	!	!LO:TX:t=P:problem=kreska pseudotaktowa	!	!LO:TX:t=P:problem=kreska pseudotaktowa	!
*	*	*xywh-#215:1370,662,5994,966	*	*	*	*	*
.	.	1E	-tris	1e	-tr(is)	1b	-re-
!LO:TX:t=P:problem=kreska pseudotaktowa	!	!	!	!	!	!	!
2G\	.	.	.	.	.	.	.
!	!	!	!	!	!	!LO:PB:g=original	!
*	*	*	*	*	*	*xywh-#12:1209,607,6141,1025	*
2A,\	tr(is)	2r	.	2r	.	1.a	-re
!	!	!LO:TX:t=P:problem=kreska pseudotaktowa	!	!	!	!	!
2AA/	Mi-	2c/	mi-	2e\	Mi-	.	.
=61-	=61-	=61-	=61-	=61-	=61-	=61-	=61-
2AA/	-ſe-	2c/	-ſe-	2.e\	-ſe-	.	.
!LO:TX:t=P:problem=kreska pseudotaktowa	!	!	!	!	!	!	!
2AA/	-re-	2c/	-re-	.	.	4g/	no-
!	!	!	!	!	!	!LO:TX:t=P:problem=kreska pseudotaktowa	!
.	.	.	.	4e\	-re-	4f/	.
2E\	-re	2B/	-re	2e\	-rere	2g/	.
2F\	.	2A/	no-	2d\	no-	2f/	.
=62-	=62-	=62-	=62-	=62-	=62-	=62-	=62-
!	!	!	!	!LO:TX:t=P:problem=kreska pseudotaktowa	!	!	!
2C/	no-	2G/	.	0c	-b(is)	2e/	.
2AA/	.	1A	.	.	.	2.f/	.
*lig	*	*	*	*	*	*	*
1C	.	.	.	.	.	.	.
.	.	.	.	.	.	4e/	.
.	.	2G/	.	.	.	1e/	-bis
=63-	=63-	=63-	=63-	=63-	=63-	=63-	=63-
*custos:AA	*	*	*	*	*	*	*
!LO:TX:t=P:problem=kreska pseudotaktowa	!	!	!	!	!	!	!
1D	.	1F	.	2r	.	.	.
!	!	!	!	!	!	!LO:TX:t=P:problem=kreska pseudotaktowa	!
.	.	.	.	2A/	Quo-	2d/	.
*Xlig	*	*	*	*	*	*	*
!LO:PB:g=original	!	!	!	!	!	!	!
*xywh-#315:7658,554,6431,1314	*	*	*	*	*	*	*
!LO:TX:t=P:problem=kreska pseudotaktowa	!	!LO:TX:t=P:problem=kreska pseudotaktowa	!	!	!	!	!
0AA	-b(is)	1E	-bis	2A/	-ni-	2e/	Quo-
*	*	*	*	*custos:c	*	*	*
!	!	!	!	!LO:TX:t=P:problem=kreska pseudotaktowa	!	!	!
.	.	.	.	2A/	-a(m)	2e/	-ni-
=64-	=64-	=64-	=64-	=64-	=64-	=64-	=64-
!	!	!	!	!LO:LB:g=original	!	!	!
*	*	*	*	*xywh-#112:1597,1155,5846,1137	*	*	*
.	.	0r	.	2.c\	tu	2e/	-am
!	!	!	!	!	!	!LO:TX:t=P:problem=kreska pseudotaktowa	!
.	.	.	.	.	.	2e/	tu
.	.	.	.	4d\	ſo-	.	.
0r	.	.	.	2e\	-lus	2g/	So-
.	.	.	.	2c\	ſan-	2a/	-lus
=65-	=65-	=65-	=65-	=65-	=65-	=65-	=65-
.	.	2r	.	2d\	-ct(us)	2b/	San-
!	!	!LO:TX:t=P:problem=kreska pseudotaktowa	!	!	!	!	!
.	.	2e\	Tu	2A/	tu	1a	.
1E	Tu	2e\	ſo-	1B	ſo-	.	.
.	.	2e\	-lus	.	.	2g/	.
=66-	=66-	=66-	=66-	=66-	=66-	=66-	=66-
!	!	!	!	!LO:TX:t=P:problem=kreska pseudotaktowa	!	!LO:TX:t=P:problem=kreska pseudotaktowa	!
2F\	ſo-	2c\	do-	1A	-lus	1a	-ctus
!LO:TX:t=P:problem=kreska pseudotaktowa	!	!	!	!	!	!	!
2D/	-lus	2d\	-mi-	.	.	.	.
!	!	!	!	!LO:TX:a:t=3.	!	!	!
1E	do-	2B/	-nus	0r	.	0r	.
.	.	2.c\	do-	.	.	.	.
=67-	=67-	=67-	=67-	=67-	=67-	=67-	=67-
2C/	.	.	.	.	.	.	.
.	.	4B/	-mi-	.	.	.	.
2D/	.	1A	.	.	.	.	.
!LO:TX:t=P:problem=kreska pseudotaktowa	!	!	!	!LO:TX:t=P:problem=kreska pseudotaktowa	!	!LO:TX:t=P:problem=kreska pseudotaktowa	!
1BB	-mi-	.	.	1r	.	1r	.
!	!	!LO:TX:t=P:problem=kreska pseudotaktowa	!	!	!	!	!
.	.	2G/	-nus	.	.	.	.
=68-	=68-	=68-	=68-	=68-	=68-	=68-	=68-
2AA,/	-nus	2A/	.	2r	.	2r	.
1AA	Tu	1A	Tu	1c	tu	1e	Tu
!LO:TX:t=P:problem=kreska pseudotaktowa	!	!	!	!LO:TX:t=P:problem=kreska pseudotaktowa	!	!LO:TX:t=P:problem=kreska pseudotaktowa	!
2AA/	ſo-	2A/	ſo-	2c\	ſo-	2e/	So-
=69-	=69-	=69-	=69-	=69-	=69-	=69-	=69-
2AA/	-lus	2A/	-lus	2c\	-lus	2e/	-lus
2AA/	al-	2A/	al-	2c\	al-	2e/	al-
2.D/	-tiſ-	2F/	-tiſ-	2.d\	-tiſ-	2.f/	-tiſ-
*	*	*custos:a	*	*	*	*	*
!	!	!LO:TX:t=P:problem=kreska pseudotaktowa	!	!	!	!	!
.	.	2D/	-si-	.	.	.	.
*	*	*	*	*	*	*custos:e	*
!	!	!	!	!	!	!LO:TX:t=P:problem=kreska pseudotaktowa	!
4D/	-ſi-	.	.	4d\	-ſi-	4f/	-si-
=70-	=70-	=70-	=70-	=70-	=70-	=70-	=70-
*	*	*	*	*	*	*lig	*
!LO:TX:t=P:problem=kreska pseudotaktowa	!LO:LB:g=original	!	!	!	!LO:LB:g=original	!	!
*	*	*xywh-#215:1476,1408,5836,975	*	*	*	*xywh-#12:1349,1484,5773,893	*
1AA	mus	1A	.	2c\	-mus	1e	-mus
.	.	.	.	1A	Je-	.	.
!	!	!LO:TX:t=P:problem=kreska pseudotaktowa	!	!	!	!LO:TX:t=P:problem=kreska pseudotaktowa	!
2r	.	1D	-mus	.	.	1d	.
!	!	!	!	!LO:TX:t=P:problem=kreska pseudotaktowa	!	!	!
2D/	Je-	.	.	2B/	-ſu	.	.
*	*	*	*	*	*	*Xlig	*
=71-	=71-	=71-	=71-	=71-	=71-	=71-	=71-
2E/	-ſu	2r	.	2.c\	Chri-	0r	.
!LO:TX:t=P:problem=kreska pseudotaktowa	!	!	!	!	!	!	!
2F/	.	1A	Je-	.	.	.	.
.	.	.	.	4A/	.	.	.
2D/	Chri-	.	.	1B	.	.	.
2E/	.	2G/	-ſu	.	.	.	.
=72-	=72-	=72-	=72-	=72-	=72-	=72-	=72-
!	!	!	!	!LO:TX:t=P:problem=kreska pseudotaktowa	!	!	!
1F	.	2c\	Chri-	1A	-ſte	2r	.
.	.	2A/	.	.	.	1a	Je-
!LO:TX:t=P:problem=kreska pseudotaktowa	!	!	!	!	!	!	!
1E	.	1B	.	2r	.	.	.
!	!	!	!	!	!	!LO:TX:t=P:problem=kreska pseudotaktowa	!
.	.	.	.	2e\	Cu(m)	2g/	-ſu
=73-	=73-	=73-	=73-	=73-	=73-	=73-	=73-
(4AA/	.	2A/	.	1.e	San-	1cc	chri-
4BB/	.	.	.	.	.	.	.
4C/	.	2E/	.	.	.	.	.
4D/)	.	.	.	.	.	.	.
2E/	.	2G/	.	.	.	2b\	.
*custos:D	*	*	*	*	*	*	*
2F/	.	2A/	.	2c\	-cto	1a\	.
=74-	=74-	=74-	=74-	=74-	=74-	=74-	=74-
!LO:LB:g=original	!	!	!	!	!	!	!
*xywh-#315:7728,1401,5928,1261	*	*	*	*	*	*	*
2D/	.	1B	.	2f\	Spi-	.	.
!LO:TX:t=P:problem=kreska pseudotaktowa	!	!	!	!LO:TX:t=P:problem=kreska pseudotaktowa	!	!	!
2E/	.	.	.	2e\	.	2g/	-ſte
*	*	*	*	*custos:f	*	*	*
!	!	!LO:TX:t=P:problem=kreska pseudotaktowa	!	!	!	!LO:TX:t=P:problem=kreska pseudotaktowa	!
2AA,/	.	0A	-ſte	2c/	.	0.a	.
!	!	!	!	!LO:LB:g=original	!	!	!
*	*	*	*	*xywh-#112:1528,2110,5880,938	*	*	*
2.D/	.	.	.	2.f\	.	.	.
=75-	=75-	=75-	=75-	=75-	=75-	=75-	=75-
.	.	.	.	.	.	.	.
4C/	.	.	.	4e\	.	.	.
4D/	.	.	.	4f\	.	.	.
4BB/	.	.	.	4d\	-ri-	.	.
!LO:TX:t=P:problem=kreska pseudotaktowa	!	!	!	!LO:TX:t=P:problem=kreska pseudotaktowa	!	!	!
1AA	-ſte	2r	.	0e	-tu	.	.
.	.	2A/	Cum	.	.	.	.
=76-	=76-	=76-	=76-	=76-	=76-	=76-	=76-
2r	.	2A/	San-	.	.	1r	.
!LO:TX:t=P:problem=kreska pseudotaktowa	!	!	!	!	!	!	!
2E\	Cu(m)	2G/	-cto	.	.	.	.
2E\	San-	1c	Spi-	1r	.	2r	.
!	!	!	!	!	!	!LO:TX:t=P:problem=kreska pseudotaktowa	!
2C/	-cto	.	.	.	.	2a\	in
=77-	=77-	=77-	=77-	=77-	=77-	=77-	=77-
2D/	Spi-	1B	-ri-	2r	.	2a\	glo-
!LO:TX:t=P:problem=kreska pseudotaktowa	!	!	!	!	!	!	!
2E\	-ri-	.	.	2e\	in	2g/	-ri-
1AA	-tu	2A/	-tu	2e\	glo-	2.cc\	-a
!	!	!LO:TX:t=P:problem=kreska pseudotaktowa	!	!LO:TX:t=P:problem=kreska pseudotaktowa	!	!	!
.	.	2A/	in	2c\	-ri-	.	.
.	.	.	.	.	.	4cc\	de-
=78-	=78-	=78-	=78-	=78-	=78-	=78-	=78-
2r	.	2G/	glo-	2d\	-a	2b\	-i
*clefF3	*	*	*	*	*	*	*
!LO:TX:t=P:problem=kreska pseudotaktowa	!	!	!	!	!	!	!
2A\	in	4A/	-ri-	2c\	de-	1cc	pa-
.	.	4B/	-a	.	.	.	.
2A\	gl(o-	4c\	de-	2A/	-i	.	.
.	.	4A/	-i	.	.	.	.
!LO:TX:t=P:problem=kreska pseudotaktowa	!	!	!	!LO:TX:t=P:problem=kreska pseudotaktowa	!	!	!
2G\	-ri)-	2.d\	pa-	2B/	pa-	4b\	.
!	!	!	!	!	!	!LO:TX:t=P:problem=kreska pseudotaktowa	!
.	.	.	.	.	.	4a\	-tris
=79-	=79-	=79-	=79-	=79-	=79-	=79-	=79-
2.c\	-a	.	.	4c\	-tr(is)	1g	A-
.	.	4c\	-tris	4d\	.	.	.
.	.	1c	.	4e\	.	.	.
4B\	de-	.	.	4c\	.	.	.
2A\	-i	.	.	2f\	A-	2a\	.
*	*	*custos:c	*	*	*	*	*
!LO:TX:t=P:problem=kreska pseudotaktowa	!	!LO:TX:t=P:problem=kreska pseudotaktowa	!	!	!	!	!
2G\	pat-	2B\	.	1e\	.	2.b\	.
=80-	=80-	=80-	=80-	=80-	=80-	=80-	=80-
!	!	!LO:LB:g=original	!	!	!	!	!
*	*	*xywh-#215:1458,2340,5651,791	*	*	*	*	*
2A\	-r(is)	2c\	A-	.	.	.	.
.	.	.	.	.	.	4a\	.
2F/	A-	2A/	.	2d\	.	1a	.
1E	.	1B	.	1e	.	.	.
.	.	.	.	.	.	2g/	.
=81-	=81-	=81-	=81-	=81-	=81-	=81-	=81-
0AAl	-me(n)	0Al;>	-men	0cl;>	-men	0al;>	-men
=||-	=||-	=||-	=||-	=||-	=||-	=||-	=||-
*-	*-	*-	*-	*-	*-	*-	*-
!!!system-decoration: [(s1,s2,s3,s4)]
!!!RDF**kern: l = terminal long
!!!ENC: Filip Voros
!!!END: 2022-01-04
!!!ENC: Marta Chmielewska
!!!END: 2022-01-05
!!!IIIF: https://repozytorium.nifc.pl/islandora/object/pl-kk%3A750/datastream/IIIF/view
!!!ENC-iiif: Jan Barakat
!!!END-iiif: 2022-09-03
!!!YEC: Copyright 2022 Narodowy Instytut Fryderyka Chopina (https://polishscores.org)
!!!YEM: License CC-BY-4.0 (https://creativecommons.org/licenses/by/4.0)
